X:110.5
T:Father Tim's
C:Eli Hickey	
S:Eli Hickey
R:reel
M:C|
L:1/8
K:G
G2AB AGFD | GDED GBdB | c3G EDEG | ABAG FDEF |
G2AB AGFD | GDED GBdB | c3G EDEG | AcBA G2AB :|
|: d2BG Bcdg | edBd gdeg | a2ea gedB | ABAG FDEF |
d2BG Bcdg | edGd gdeg | a2ea gedB | ABAG G2Bc :|

%%newpage
%%scale .7
%%staffsep 35

